X:1
T:Johnson-A Collection of New Cotillons, Castilian, No. 12
T:A Collection of New Cotillons , “Castilian,” No. 12 
T:Francis Johnson
C:Francis Johnson
%%score { 1 | 2 }
L:1/8
M:6/8
K:C
V:1 treble nm="Piano" snm="Pno."
V:2 bass 
V:1
 CC/B,/C/B,/ CDE | FGA G3 | cde f2 e | dec BAG | CC/B,/C/B,/ CDE | FGA G3 | cde f2 e | %7
 dcB"_fine" c2 :| G | f2 e dcd | e2 d cBc | d2 e f2 e | dec BAG | f2 e dcd | e2 d cBc | d2 c f2 e | %16
 BAG"_D .C." [Ec]3 |] %17
V:2
 C,,2 C, C,,2 C, | C,,2 C, C,,2 C, | C,,2 C, C,,2 C, | G,,2 G, G,,2 G, | C,,2 C, C,,2 C, | %5
 C,,2 C, C,,2 C, | C,,2 C, C,,2 C, | G,,2 G, [C,,C,]2 :| z | B,,D,G, B,,D,G, | C,E,G, C,E,G, | %11
 B,,D,G, B,,D,G, | G,,D,G, G,,D,G, | B,,D,G, B,,D,G, | C,E,G, C,E,G, | G,,D,G, G,,D,G, | %16
 G,,D,G, C,,3 |] %17

